static/images/tech-icons/dark/serverless.svg

<svg height="23" viewBox="0 0 153 23" width="153" xmlns="http://www.w3.org/2000/svg"><g><path d="m50.46 17.6496c.432-.4104.9288-1.2096.864-2.4408-.1296-2.6568-2.7216-2.9592-4.4496-3.1752-2.16-.2376-2.5056-.4752-2.5272-1.1232 0-.8208 1.1232-1.2312 2.1384-1.188 1.9224.0648 3.6504.7128 3.6504.7128l.6912-2.1384c-.0864-.0216-2.0304-.6264-4.2768-.6912-2.3328-.0648-4.4712 1.0152-4.4064 3.348.0432 2.808 2.7216 3.1104 4.4712 3.3048 1.9872.2376 2.5272.4536 2.5704 1.0584.0216.4536 0 1.6632-2.808 1.4472-1.8576-.1512-3.5208-.9936-3.5424-1.0152l-.9288 1.944c.108.0432 2.1384 1.0368 4.5144 1.1016 1.2096.0432 2.9376-.0216 4.0392-1.1448zm8.073 1.1232c2.1168 0 4.212-.864 4.212-.864l-.5616-1.9224s-1.8576.7344-3.564.7344c-2.1816 0-3.2832-1.3824-3.2832-2.7h7.992l.0005078-1.2789406c.0047797-.3950969-.0392078-5.1362594-4.9037078-5.1362594-4.5087508 0-5.3738551 3.8949325-5.3994064 5.4786784l-.0005936.0725216c0 1.4472.5616 5.616 5.508 5.616zm2.6136-6.6744h-5.7888s.2592-2.3544 3.0672-2.3544c2.8728 0 2.7216 2.3544 2.7216 2.3544zm7.1226 6.5016v-6.7608c0-.756.972-1.7712 1.944-1.7712h3.7584v-2.268h-3.4344c-1.944 0-2.4408 1.7712-2.4408 2.0952l-.1296-2.0952h-2.1168v10.8zm14.2074 0 3.4344-10.8h-2.3112l-2.8512 8.7048-2.5488-8.7048h-2.4408l3.2832 10.8zm10.2114.1728c2.1168 0 4.212-.864 4.212-.864l-.5616-1.9224s-1.8576.7344-3.564.7344c-2.1816 0-3.2832-1.3824-3.2832-2.7h7.992l.0005078-1.2789406c.0047797-.3950969-.0392078-5.1362594-4.9037078-5.1362594-4.508751 0-5.373855 3.8949325-5.3994067 5.4786784l-.0005933.0725216c0 1.4472.5616 5.616 5.508 5.616zm2.6136-6.6744h-5.7888s.2592-2.3544 3.0672-2.3544c2.8728 0 2.7216 2.3544 2.7216 2.3544zm7.1226 6.5016v-6.7608c0-.756.972-1.7712 1.944-1.7712h3.7584v-2.268h-3.4344c-1.944 0-2.4408 1.7712-2.4408 2.0952l-.1296-2.0952h-2.1168v10.8zm15.9354 0v-2.268h-4.4496v-12.852h-5.7672v1.9872h3.456v13.1328zm6.9714.1728c2.1168 0 4.212-.864 4.212-.864l-.5616-1.9224s-1.8576.7344-3.564.7344c-2.1816 0-3.2832-1.3824-3.2832-2.7h7.992l.000508-1.2789406c.00478-.3950969-.039208-5.1362594-4.903708-5.1362594-4.508751 0-5.373855 3.8949325-5.399407 5.4786784l-.000593.0725216c0 1.4472.5616 5.616 5.508 5.616zm2.6136-6.6744h-5.7888s.2592-2.3544 3.0672-2.3544c2.8728 0 2.7216 2.3544 2.7216 2.3544zm12.3714 5.5512c.432-.4104.9288-1.2096.864-2.4408-.1296-2.6568-2.7216-2.9592-4.4496-3.1752-2.16-.2376-2.5056-.4752-2.5272-1.1232 0-.8208 1.1232-1.2312 2.1384-1.188 1.9224.0648 3.6504.7128 3.6504.7128l.6912-2.1384c-.0864-.0216-2.0304-.6264-4.2768-.6912-2.3328-.0648-4.4712 1.0152-4.4064 3.348.0432 2.808 2.7216 3.1104 4.4712 3.3048 1.9872.2376 2.5272.4536 2.5704 1.0584.0216.4536 0 1.6632-2.808 1.4472-1.8576-.1512-3.5208-.9936-3.5424-1.0152l-.9288 1.944c.108.0432 2.1384 1.0368 4.5144 1.1016 1.2096.0432 2.9376-.0216 4.0392-1.1448zm11.0916 0c.432-.4104.9288-1.2096.864-2.4408-.1296-2.6568-2.7216-2.9592-4.4496-3.1752-2.16-.2376-2.5056-.4752-2.5272-1.1232 0-.8208 1.1232-1.2312 2.1384-1.188 1.9224.0648 3.6504.7128 3.6504.7128l.6912-2.1384c-.0864-.0216-2.0304-.6264-4.2768-.6912-2.3328-.0648-4.4712 1.0152-4.4064 3.348.0432 2.808 2.7216 3.1104 4.4712 3.3048 1.9872.2376 2.5272.4536 2.5704 1.0584.0216.4536 0 1.6632-2.808 1.4472-1.8576-.1512-3.5208-.9936-3.5424-1.0152l-.9288 1.944c.108.0432 2.1384 1.0368 4.5144 1.1016 1.2096.0432 2.9376-.0216 4.0392-1.1448z"/><path d="m9.16478873 5.4 1.63521127-4.8h-10.8v4.8zm19.03521127 0v-4.8h-12.2456044l-1.5543956 4.8zm-21.83883495 8.4 1.43883495-4.8h-7.8v4.8zm21.83883495 0v-4.8h-15.3424657l-1.4575343 4.8zm-24.825 9 1.425-4.8h-4.8v4.8zm24.825 0v-4.8h-18.22978725l-1.57021275 4.8z"/></g></svg>

<?xml version="1.0" encoding="UTF-8"?>
<svg width="153px" height="23px" viewBox="0 0 153 23" version="1.1" xmlns="http://www.w3.org/2000/svg" xmlns:xlink="http://www.w3.org/1999/xlink">
    <title>serverless</title>
    <g id="serverless" stroke="none" stroke-width="1" fill="none" fill-rule="evenodd">
        <g id="1" fill="#000000" fill-rule="nonzero">
            <path d="M50.46,17.6496 C50.892,17.2392 51.3888,16.44 51.324,15.2088 C51.1944,12.552 48.6024,12.2496 46.8744,12.0336 C44.7144,11.796 44.3688,11.5584 44.3472,10.9104 C44.3472,10.0896 45.4704,9.6792 46.4856,9.7224 C48.408,9.7872 50.136,10.4352 50.136,10.4352 L50.8272,8.2968 C50.7408,8.2752 48.7968,7.6704 46.5504,7.6056 C44.2176,7.5408 42.0792,8.6208 42.144,10.9536 C42.1872,13.7616 44.8656,14.064 46.6152,14.2584 C48.6024,14.496 49.1424,14.712 49.1856,15.3168 C49.2072,15.7704 49.1856,16.98 46.3776,16.764 C44.52,16.6128 42.8568,15.7704 42.8352,15.7488 L41.9064,17.6928 C42.0144,17.736 44.0448,18.7296 46.4208,18.7944 C47.6304,18.8376 49.3584,18.7728 50.46,17.6496 Z M58.533,18.7728 C60.6498,18.7728 62.745,17.9088 62.745,17.9088 L62.1834,15.9864 C62.1834,15.9864 60.3258,16.7208 58.6194,16.7208 C56.4378,16.7208 55.3362,15.3384 55.3362,14.0208 L63.3282,14.0208 L63.3287078,12.7418594 C63.3334875,12.3467625 63.2895,7.6056 58.425,7.6056 C53.9162492,7.6056 53.0511449,11.5005325 53.0255936,13.0842784 L53.025,13.1568 C53.025,14.604 53.5866,18.7728 58.533,18.7728 Z M61.1466,12.0984 L55.3578,12.0984 C55.3578,12.0984 55.617,9.744 58.425,9.744 C61.2978,9.744 61.1466,12.0984 61.1466,12.0984 Z M68.2692,18.6 L68.2692,11.8392 C68.2692,11.0832 69.2412,10.068 70.2132,10.068 L73.9716,10.068 L73.9716,7.8 L70.5372,7.8 C68.5932,7.8 68.0964,9.5712 68.0964,9.8952 L67.9668,7.8 L65.85,7.8 L65.85,7.8 L65.85,18.6 L68.2692,18.6 L68.2692,18.6 Z M82.4766,18.6 L85.911,7.8 L83.5998,7.8 L80.7486,16.5048 L78.1998,7.8 L75.759,7.8 L79.0422,18.6 L82.4766,18.6 Z M92.688,18.7728 C94.8048,18.7728 96.9,17.9088 96.9,17.9088 L96.3384,15.9864 C96.3384,15.9864 94.4808,16.7208 92.7744,16.7208 C90.5928,16.7208 89.4912,15.3384 89.4912,14.0208 L97.4832,14.0208 L97.4837078,12.7418594 C97.4884875,12.3467625 97.4445,7.6056 92.58,7.6056 C88.071249,7.6056 87.206145,11.5005325 87.1805933,13.0842784 L87.18,13.1568 C87.18,14.604 87.7416,18.7728 92.688,18.7728 Z M95.3016,12.0984 L89.5128,12.0984 C89.5128,12.0984 89.772,9.744 92.58,9.744 C95.4528,9.744 95.3016,12.0984 95.3016,12.0984 Z M102.4242,18.6 L102.4242,11.8392 C102.4242,11.0832 103.3962,10.068 104.3682,10.068 L108.1266,10.068 L108.1266,7.8 L104.6922,7.8 C102.7482,7.8 102.2514,9.5712 102.2514,9.8952 L102.1218,7.8 L100.005,7.8 L100.005,7.8 L100.005,18.6 L102.4242,18.6 L102.4242,18.6 Z M118.3596,18.6 L118.3596,16.332 L113.91,16.332 L113.91,3.48 L108.1428,3.48 L108.1428,5.4672 L111.5988,5.4672 L111.5988,18.6 L118.3596,18.6 Z M125.331,18.7728 C127.4478,18.7728 129.543,17.9088 129.543,17.9088 L128.9814,15.9864 C128.9814,15.9864 127.1238,16.7208 125.4174,16.7208 C123.2358,16.7208 122.1342,15.3384 122.1342,14.0208 L130.1262,14.0208 L130.126708,12.7418594 C130.131488,12.3467625 130.0875,7.6056 125.223,7.6056 C120.714249,7.6056 119.849145,11.5005325 119.823593,13.0842784 L119.823,13.1568 C119.823,14.604 120.3846,18.7728 125.331,18.7728 Z M127.9446,12.0984 L122.1558,12.0984 C122.1558,12.0984 122.415,9.744 125.223,9.744 C128.0958,9.744 127.9446,12.0984 127.9446,12.0984 Z M140.316,17.6496 C140.748,17.2392 141.2448,16.44 141.18,15.2088 C141.0504,12.552 138.4584,12.2496 136.7304,12.0336 C134.5704,11.796 134.2248,11.5584 134.2032,10.9104 C134.2032,10.0896 135.3264,9.6792 136.3416,9.7224 C138.264,9.7872 139.992,10.4352 139.992,10.4352 L140.6832,8.2968 C140.5968,8.2752 138.6528,7.6704 136.4064,7.6056 C134.0736,7.5408 131.9352,8.6208 132,10.9536 C132.0432,13.7616 134.7216,14.064 136.4712,14.2584 C138.4584,14.496 138.9984,14.712 139.0416,15.3168 C139.0632,15.7704 139.0416,16.98 136.2336,16.764 C134.376,16.6128 132.7128,15.7704 132.6912,15.7488 L131.7624,17.6928 C131.8704,17.736 133.9008,18.7296 136.2768,18.7944 C137.4864,18.8376 139.2144,18.7728 140.316,17.6496 Z M151.4076,17.6496 C151.8396,17.2392 152.3364,16.44 152.2716,15.2088 C152.142,12.552 149.55,12.2496 147.822,12.0336 C145.662,11.796 145.3164,11.5584 145.2948,10.9104 C145.2948,10.0896 146.418,9.6792 147.4332,9.7224 C149.3556,9.7872 151.0836,10.4352 151.0836,10.4352 L151.7748,8.2968 C151.6884,8.2752 149.7444,7.6704 147.498,7.6056 C145.1652,7.5408 143.0268,8.6208 143.0916,10.9536 C143.1348,13.7616 145.8132,14.064 147.5628,14.2584 C149.55,14.496 150.09,14.712 150.1332,15.3168 C150.1548,15.7704 150.1332,16.98 147.3252,16.764 C145.4676,16.6128 143.8044,15.7704 143.7828,15.7488 L142.854,17.6928 C142.962,17.736 144.9924,18.7296 147.3684,18.7944 C148.578,18.8376 150.306,18.7728 151.4076,17.6496 Z" id="serverless"></path>
            <path d="M9.16478873,5.4 L10.8,0.6 L0,0.6 L0,5.4 L9.16478873,5.4 Z M28.2,5.4 L28.2,0.6 L15.9543956,0.6 L14.4,5.4 L28.2,5.4 Z M6.36116505,13.8 L7.8,9 L0,9 L0,13.8 L6.36116505,13.8 Z M28.2,13.8 L28.2,9 L12.8575343,9 L11.4,13.8 L28.2,13.8 Z M3.375,22.8 L4.8,18 L0,18 L0,22.8 L3.375,22.8 Z M28.2,22.8 L28.2,18 L9.97021275,18 L8.4,22.8 L28.2,22.8 Z" id="ß"></path>
        </g>
    </g>
</svg>
